public/img/logo/logotype_light_v5.svg

<svg clip-rule="evenodd" fill-rule="evenodd" stroke-linejoin="round" stroke-miterlimit="2" viewBox="0 0 581 126" xmlns="http://www.w3.org/2000/svg" xmlns:xlink="http://www.w3.org/1999/xlink"><clipPath id="a"><path clip-rule="evenodd" d="m0 0h1280v2080h-1280z"/></clipPath><clipPath id="b"><path clip-rule="evenodd" d="m0 0h290.03v62.93h-290.03z"/></clipPath><g transform="scale(.453203 .0605288)"><path d="m0 0h1280v2080h-1280z" fill="none"/><g clip-path="url(#a)"><g clip-path="url(#b)" fill="#fff" transform="matrix(4.41334 0 0 33.0421 -.0005001 .0003235)"><path d="m80.56 31.5c0-10.22 8.19-18.32 18.41-18.32 4.76 0 9.1 1.71 12.39 4.54l-4.83 5.61c-1.75-1.63-4.34-2.56-7.42-2.56-6.09 0-10.64 4.47-10.64 10.72s4.2 10.65 10.85 10.65c3.22 0 6.44-1.14 8.47-3.05l4.27 5.96c-3.36 2.91-8.05 4.69-13.09 4.69-10.22 0-18.41-8.02-18.41-18.25" fill-rule="nonzero"/><path d="m116.27 31.5c0-10.22 8.19-18.32 18.41-18.32s18.41 8.09 18.41 18.32-8.19 18.25-18.41 18.25-18.41-8.09-18.41-18.25m28.9 0c0-6.18-4.55-10.72-10.5-10.72s-10.5 4.54-10.5 10.72 4.55 10.65 10.5 10.65 10.5-4.54 10.5-10.65" fill-rule="nonzero"/><path d="m161.09 2.32h7.77v46.72h-7.77z"/><g fill-rule="nonzero"><path d="m176.5 31.5c0-10.15 6.51-18.32 16.03-18.32 4.69 0 8.82 1.92 11.55 5.18v-4.47h7.77v35.14h-7.77v-4.4c-2.73 3.27-6.86 5.11-11.55 5.11-9.52 0-16.03-8.17-16.03-18.25m27.58.01c0-6.18-4.06-10.72-9.59-10.72-5.88 0-10.08 4.54-10.08 10.72s4.2 10.65 10.08 10.65c5.46 0 9.59-4.4 9.59-10.65"/><path d="m227.59 44.63v4.4h-7.42v-46.71h7.77v16.05c2.73-3.27 6.86-5.18 11.55-5.18 9.52 0 16.03 8.17 16.03 18.32s-6.51 18.25-16.03 18.25c-4.83 0-9.1-1.85-11.9-5.11m20.02-13.15c0-6.18-4.2-10.72-10.08-10.72-5.53 0-9.59 4.54-9.59 10.72s4.13 10.65 9.59 10.65c5.88 0 10.08-4.47 10.08-10.65"/><path d="m261.34 44.63 2.94-6.46c2.24 1.85 5.81 4.19 10.99 4.19 3.15 0 6.86-1.21 6.86-3.69s-3.5-3.19-6.93-4.19c-6.58-1.85-12.18-3.83-12.18-10.72s6.93-10.58 13.02-10.58c5.18 0 8.61 1.35 12.39 3.62l-2.87 6.39c-3.08-1.78-6.02-2.63-9.45-2.63-2.59 0-5.18 1.21-5.18 3.05 0 2.41 2.87 2.98 5.95 3.62 6.44 1.42 13.16 4.05 13.16 11.29 0 8.24-8.33 11.22-14.77 11.22-7.14 0-12.04-3.27-13.93-5.11"/><path d="m44.36 0c-2.79 0-5.08 2.15-5.31 4.88v.21c0 .16 0 .31-.02.47-.23 3.95-3.43 7.1-7.41 7.24h-.5c-3.97-.14-7.17-3.29-7.41-7.24 0-.16-.02-.31-.02-.47v-.21c-.23-2.73-2.52-4.88-5.31-4.88-3.64 0-6.44 3.68-4.87 7.53.78 1.92 2.74 3.1 4.82 3.1h.05c4.09.02 7.43 3.25 7.64 7.29v.49c.16 2.79 2.47 5 5.3 5h.06c2.82 0 5.14-2.21 5.3-5v-.49c.21-4.04 3.55-7.26 7.64-7.29h.05c2.08 0 4.04-1.18 4.82-3.1 1.57-3.86-1.23-7.53-4.87-7.53z" transform="translate(.075)"/><path d="m18.49 62.93c2.79 0 5.08-2.15 5.31-4.88v-.21c0-.16 0-.31.02-.47.23-3.95 3.43-7.1 7.41-7.24h.5c3.97.14 7.17 3.29 7.41 7.24 0 .16.02.31.02.47v.21c.23 2.73 2.52 4.88 5.31 4.88 3.64 0 6.44-3.68 4.87-7.53-.78-1.92-2.74-3.1-4.82-3.1h-.05c-4.09-.02-7.43-3.25-7.64-7.29v-.49c-.16-2.79-2.47-5-5.3-5h-.06c-2.82 0-5.14 2.21-5.3 5v.49c-.21 4.04-3.55 7.26-7.64 7.29h-.05c-2.08 0-4.04 1.18-4.82 3.1-1.57 3.86 1.23 7.53 4.87 7.53z" transform="translate(-.075)"/><path d="m0 18.55c0 2.79 2.15 5.08 4.88 5.31h.21c.16 0 .31 0 .47.02 3.95.23 7.1 3.43 7.24 7.41v.5c-.14 3.97-3.29 7.17-7.24 7.41-.16 0-.31.02-.47.02h-.21c-2.73.23-4.88 2.52-4.88 5.31 0 3.64 3.68 6.44 7.53 4.87 1.92-.78 3.1-2.74 3.1-4.82v-.05c.02-4.09 3.25-7.43 7.29-7.64h.49c2.79-.16 5-2.47 5-5.3v-.06c0-2.82-2.21-5.14-5-5.3h-.49c-4.04-.21-7.26-3.55-7.29-7.64v-.05c0-2.08-1.18-4.04-3.1-4.82-3.86-1.57-7.53 1.23-7.53 4.87z" transform="translate(0 -.035)"/><path d="m62.93 44.5c0-2.79-2.15-5.08-4.88-5.31h-.21c-.16 0-.31 0-.47-.02-3.95-.23-7.1-3.43-7.24-7.41v-.5c.14-3.97 3.29-7.17 7.24-7.41.16 0 .31-.02.47-.02h.21c2.73-.23 4.88-2.52 4.88-5.31 0-3.64-3.68-6.44-7.53-4.87-1.92.78-3.1 2.74-3.1 4.82v.05c-.02 4.09-3.25 7.43-7.29 7.64h-.49c-2.79.16-5 2.47-5 5.3v.06c0 2.82 2.21 5.14 5 5.3h.49c4.04.21 7.26 3.55 7.29 7.64v.05c0 2.08 1.18 4.04 3.1 4.82 3.86 1.57 7.53-1.23 7.53-4.87z" transform="translate(0 .035)"/></g></g></g></g></svg>

<?xml version="1.0" encoding="UTF-8" standalone="no"?>
<!DOCTYPE svg PUBLIC "-//W3C//DTD SVG 1.1//EN" "http://www.w3.org/Graphics/SVG/1.1/DTD/svg11.dtd">
<svg width="100%" height="100%" viewBox="0 0 581 126" version="1.1" xmlns="http://www.w3.org/2000/svg" xmlns:xlink="http://www.w3.org/1999/xlink" xml:space="preserve" xmlns:serif="http://www.serif.com/" style="fill-rule:evenodd;clip-rule:evenodd;stroke-linejoin:round;stroke-miterlimit:2;">
    <g transform="matrix(1,0,0,1,-480,-31.465)">
        <g id="Logotypo" transform="matrix(0.453203,0,0,0.0605288,480,31.465)">
            <rect x="0" y="0" width="1280" height="2080" style="fill:none;"/>
            <clipPath id="_clip1">
                <rect x="0" y="0" width="1280" height="2080"/>
            </clipPath>
            <g clip-path="url(#_clip1)">
                <g id="Recurso-4.svg" serif:id="Recurso 4.svg" transform="matrix(4.41334,0,0,33.0421,640,1039.67)">
                    <g transform="matrix(1,0,0,1,-145.015,-31.465)">
                        <clipPath id="_clip2">
                            <rect x="0" y="0" width="290.03" height="62.93"/>
                        </clipPath>
                        <g clip-path="url(#_clip2)">
                            <g id="Capa_1-2">
                                <path d="M80.56,31.5C80.56,21.28 88.75,13.18 98.97,13.18C103.73,13.18 108.07,14.89 111.36,17.72L106.53,23.33C104.78,21.7 102.19,20.77 99.11,20.77C93.02,20.77 88.47,25.24 88.47,31.49C88.47,37.74 92.67,42.14 99.32,42.14C102.54,42.14 105.76,41 107.79,39.09L112.06,45.05C108.7,47.96 104.01,49.74 98.97,49.74C88.75,49.74 80.56,41.72 80.56,31.49" style="fill:white;fill-rule:nonzero;"/>
                                <path d="M116.27,31.5C116.27,21.28 124.46,13.18 134.68,13.18C144.9,13.18 153.09,21.27 153.09,31.5C153.09,41.73 144.9,49.75 134.68,49.75C124.46,49.75 116.27,41.66 116.27,31.5M145.17,31.5C145.17,25.32 140.62,20.78 134.67,20.78C128.72,20.78 124.17,25.32 124.17,31.5C124.17,37.68 128.72,42.15 134.67,42.15C140.62,42.15 145.17,37.61 145.17,31.5" style="fill:white;fill-rule:nonzero;"/>
                                <rect x="161.09" y="2.32" width="7.77" height="46.72" style="fill:white;"/>
                                <path d="M176.5,31.5C176.5,21.35 183.01,13.18 192.53,13.18C197.22,13.18 201.35,15.1 204.08,18.36L204.08,13.89L211.85,13.89L211.85,49.03L204.08,49.03L204.08,44.63C201.35,47.9 197.22,49.74 192.53,49.74C183.01,49.74 176.5,41.57 176.5,31.49M204.08,31.5C204.08,25.32 200.02,20.78 194.49,20.78C188.61,20.78 184.41,25.32 184.41,31.5C184.41,37.68 188.61,42.15 194.49,42.15C199.95,42.15 204.08,37.75 204.08,31.5" style="fill:white;fill-rule:nonzero;"/>
                                <path d="M227.59,44.63L227.59,49.03L220.17,49.03L220.17,2.32L227.94,2.32L227.94,18.37C230.67,15.1 234.8,13.19 239.49,13.19C249.01,13.19 255.52,21.36 255.52,31.51C255.52,41.66 249.01,49.76 239.49,49.76C234.66,49.76 230.39,47.91 227.59,44.65M247.61,31.5C247.61,25.32 243.41,20.78 237.53,20.78C232,20.78 227.94,25.32 227.94,31.5C227.94,37.68 232.07,42.15 237.53,42.15C243.41,42.15 247.61,37.68 247.61,31.5" style="fill:white;fill-rule:nonzero;"/>
                                <path d="M261.34,44.63L264.28,38.17C266.52,40.02 270.09,42.36 275.27,42.36C278.42,42.36 282.13,41.15 282.13,38.67C282.13,36.19 278.63,35.48 275.2,34.48C268.62,32.63 263.02,30.65 263.02,23.76C263.02,16.87 269.95,13.18 276.04,13.18C281.22,13.18 284.65,14.53 288.43,16.8L285.56,23.19C282.48,21.41 279.54,20.56 276.11,20.56C273.52,20.56 270.93,21.77 270.93,23.61C270.93,26.02 273.8,26.59 276.88,27.23C283.32,28.65 290.04,31.28 290.04,38.52C290.04,46.76 281.71,49.74 275.27,49.74C268.13,49.74 263.23,46.47 261.34,44.63" style="fill:white;fill-rule:nonzero;"/>
                                <g transform="matrix(1,0,0,1,0.075,0)">
                                    <path d="M44.36,0C41.57,0 39.28,2.15 39.05,4.88L39.05,5.09C39.05,5.25 39.05,5.4 39.03,5.56C38.8,9.51 35.6,12.66 31.62,12.8L31.12,12.8C27.15,12.66 23.95,9.51 23.71,5.56C23.71,5.4 23.69,5.25 23.69,5.09L23.69,4.88C23.46,2.15 21.17,0 18.38,0C14.74,0 11.94,3.68 13.51,7.53C14.29,9.45 16.25,10.63 18.33,10.63L18.38,10.63C22.47,10.65 25.81,13.88 26.02,17.92L26.02,18.41C26.18,21.2 28.49,23.41 31.32,23.41L31.38,23.41C34.2,23.41 36.52,21.2 36.68,18.41L36.68,17.92C36.89,13.88 40.23,10.66 44.32,10.63L44.37,10.63C46.45,10.63 48.41,9.45 49.19,7.53C50.76,3.67 47.96,0 44.32,0L44.36,0Z" style="fill:white;fill-rule:nonzero;"/>
                                </g>
                                <g transform="matrix(1,0,0,1,-0.075,0)">
                                    <path d="M18.49,62.93C21.28,62.93 23.57,60.78 23.8,58.05L23.8,57.84C23.8,57.68 23.8,57.53 23.82,57.37C24.05,53.42 27.25,50.27 31.23,50.13L31.73,50.13C35.7,50.27 38.9,53.42 39.14,57.37C39.14,57.53 39.16,57.68 39.16,57.84L39.16,58.05C39.39,60.78 41.68,62.93 44.47,62.93C48.11,62.93 50.91,59.25 49.34,55.4C48.56,53.48 46.6,52.3 44.52,52.3L44.47,52.3C40.38,52.28 37.04,49.05 36.83,45.01L36.83,44.52C36.67,41.73 34.36,39.52 31.53,39.52L31.47,39.52C28.65,39.52 26.33,41.73 26.17,44.52L26.17,45.01C25.96,49.05 22.62,52.27 18.53,52.3L18.48,52.3C16.4,52.3 14.44,53.48 13.66,55.4C12.09,59.26 14.89,62.93 18.53,62.93L18.49,62.93Z" style="fill:white;fill-rule:nonzero;"/>
                                </g>
                                <g transform="matrix(1,0,0,1,0,-0.035)">
                                    <path d="M0,18.55C0,21.34 2.15,23.63 4.88,23.86L5.09,23.86C5.25,23.86 5.4,23.86 5.56,23.88C9.51,24.11 12.66,27.31 12.8,31.29L12.8,31.79C12.66,35.76 9.51,38.96 5.56,39.2C5.4,39.2 5.25,39.22 5.09,39.22L4.88,39.22C2.15,39.45 0,41.74 0,44.53C0,48.17 3.68,50.97 7.53,49.4C9.45,48.62 10.63,46.66 10.63,44.58L10.63,44.53C10.65,40.44 13.88,37.1 17.92,36.89L18.41,36.89C21.2,36.73 23.41,34.42 23.41,31.59L23.41,31.53C23.41,28.71 21.2,26.39 18.41,26.23L17.92,26.23C13.88,26.02 10.66,22.68 10.63,18.59L10.63,18.54C10.63,16.46 9.45,14.5 7.53,13.72C3.67,12.15 0,14.95 0,18.59L0,18.55Z" style="fill:white;fill-rule:nonzero;"/>
                                </g>
                                <g transform="matrix(1,0,0,1,0,0.035)">
                                    <path d="M62.93,44.5C62.93,41.71 60.78,39.42 58.05,39.19L57.84,39.19C57.68,39.19 57.53,39.19 57.37,39.17C53.42,38.94 50.27,35.74 50.13,31.76L50.13,31.26C50.27,27.29 53.42,24.09 57.37,23.85C57.53,23.85 57.68,23.83 57.84,23.83L58.05,23.83C60.78,23.6 62.93,21.31 62.93,18.52C62.93,14.88 59.25,12.08 55.4,13.65C53.48,14.43 52.3,16.39 52.3,18.47L52.3,18.52C52.28,22.61 49.05,25.95 45.01,26.16L44.52,26.16C41.73,26.32 39.52,28.63 39.52,31.46L39.52,31.52C39.52,34.34 41.73,36.66 44.52,36.82L45.01,36.82C49.05,37.03 52.27,40.37 52.3,44.46L52.3,44.51C52.3,46.59 53.48,48.55 55.4,49.33C59.26,50.9 62.93,48.1 62.93,44.46L62.93,44.5Z" style="fill:white;fill-rule:nonzero;"/>
                                </g>
                            </g>
                        </g>
                    </g>
                </g>
            </g>
        </g>
    </g>
</svg>
